X: 33
T: Mrs. Garden Campbell's
S: Fitzmaurice Collection
N: 132208
L: 1/8
M: 6/8
R: jig
Q: 1/4=180
K: G
G/A/| B2G B2G | cAG G2A | B2G B2G | cAG F2 :|
d | cAG GAG | cAG G2d | cAG GAG | cAG F2 :|
d | cAG cAG | cAG G2d | cAG cAG | cAG F2 :|
d | cBA de=f | cAG G2d| cBA de=f | cAG F2 :|
A | __BcB BAG |A_BA AGF | G2G GFG | cAG G2A |
_BcB BAG | A_BA AGF | GAG GFG | cAG F2 :|
A | _B2D D2B | A2D D2F | G2G GFG | cAG G2A |
_B2D D2B | A2D D2E | =F2F F2d | cAG =F2 :|
d | de=f def | cAG G2A | de=f def | cAG =F2 :|
_B | _B2B BAB | c2c c_Bc | def g_ba | gd_B G2A |
 _B2B BAB | c2c c_Bc | cde fed | cAG =F2 :|
%%%%%
